icons/lines/filter.svg

<svg xmlns="http://www.w3.org/2000/svg" width="24" height="24" viewBox="0 0 24 24" fill="none" stroke="currentColor" stroke-width="2" stroke-linecap="round" stroke-linejoin="round" >
  <path d="M5.40039 2.09998H18.6004C19.7004 2.09998 20.6004 2.99998 20.6004 4.09998V6.29998C20.6004 7.09998 20.1004 8.09998 19.6004 8.59998L15.3004 12.4C14.7004 12.9 14.3004 13.9 14.3004 14.7V19C14.3004 19.6 13.9004 20.4 13.4004 20.7L12.0004 21.6C10.7004 22.4 8.90039 21.5 8.90039 19.9V14.6C8.90039 13.9 8.50039 13 8.10039 12.5L4.30039 8.49998C3.80039 7.99998 3.40039 7.09998 3.40039 6.49998V4.19998C3.40039 2.99998 4.30039 2.09998 5.40039 2.09998Z" stroke-miterlimit="10"/>
  <path d="M10.93 2.09998L6 9.99998" stroke-miterlimit="10"/>
  </svg>

<svg xmlns="http://www.w3.org/2000/svg" width="24" height="24" viewBox="0 0 24 24" fill="none" stroke="currentColor" stroke-width="2" stroke-linecap="round" stroke-linejoin="round">
  <path d="M10.93 2.1 6 10" />
  <path d="M18.6 2.1a2 2 0 0 1 2 2v2.2c0 .8-.5 1.8-1 2.3l-4.3 3.8c-.6.5-1 1.5-1 2.3V19c0 .6-.4 1.4-.9 1.7l-1.4.9c-1.3.8-3.1-.1-3.1-1.7v-5.3c0-.7-.4-1.6-.8-2.1l-3.8-4c-.5-.5-.9-1.4-.9-2V4.2c0-1.2.9-2.1 2-2.1z" />
</svg>
